X: 14295
T: Gale Bridge
R: slide
M: 12/8
K: Amixolydian
|:e2a c2e A2c BAB|c2B Bce f2e c2 (e|
{f}e2)a c2e A2c BAB|1 cec B2c A3 A2e:|2 cec B2c A3 A2B|
|:c2B Bce f2e c2B|c2B Bce f2e c2(e|
{f}e2)a c2e A2c BAB|1 cec B2c A3 a2B:|2 cec B2c A3 a2e|

